X:1
T:Montecito, 12.10.12.10 D
T:Montecito, 12.10.12.10 D
T:Lelia Naylor Morris, 1896
T:Public Domain Courtesy of the Cyber Hymnal™
C:Lelia Naylor Morris, 1896
Z:Public Domain
Z:Courtesy of the Cyber Hymnal™
%%score ( 1 2 ) ( 3 4 )
L:1/8
Q:1/4=117
M:3/4
K:Eb
V:1 treble 
V:2 treble 
V:3 bass 
V:4 bass 
V:1
 B,B, | B,2 [B,E]2 [B,F]2 | [EG]4 [EG][Ec] | [EB]2 [B,E]2 [B,F]2 | [EG]4 [FA][EG] | %5
 [DF]2 [DF]2 [EG]2 | [DA]2 [DB]2 [Dc]2 | [EB]6 | [EG]4 B,B, | B,2 [B,E]2 [B,F]2 | [EG]4 [EG][Ec] | %11
 [EB]2 [B,E]2 [B,F]2 | [EG]4 [FA][EG] | [DF]2 [DF]2 [EG]2 | [E=A]2 [Fd]3 [Ec] | [Ec]6 | %16
 [DB]4 [DB][DB] | [DB]2 [DF]3 [EG] | [DA]4 [DB][Dc] x6 | [EB]2 E3 [DF] | [EG]4 [FA][EG] | %21
 [DF]2 [DF]2 [EG]2 | [E=A]2 [Fd]3 [Ec] | [Ec]6 | [DB]4 [AB][AB] | [Ge]2 [EG]2 [Ac]2 | %26
 [GB]4 [EG][EG] | [EG]2 [DA]2 [EB]2 | [Ac]4 [^Fc][Fc] | [GB]2 !fermata![Ge]2 (EF) | %30
 [EG]3 [EG] [B,E]2 | [DF]6 | E6 |] %33
V:2
 B,B, | B,2 x4 | x6 | x6 | x6 | x6 | x6 | x6 | x4 B,B, | B,2 x4 | x6 | x6 | x6 | x6 | x6 | x6 | %16
 x6 | x6 | x12 | x2 E3 x | x6 | x6 | x6 | x6 | x6 | x6 | x6 | x6 | x6 | x4 E2 | x6 | x6 | E6 |] %33
V:3
 [E,G,][E,G,] | [E,G,]2 [E,G,]2 [E,A,]2 | [E,B,]4 [E,B,][E,A,] | [E,G,]2 [E,G,]2 [E,A,]2 | %4
 [E,B,]4 [D,B,][E,B,] | [B,,B,]2 [B,,B,]2 [B,,B,]2 | [B,,B,]2 [B,,B,]2 [B,,B,]2 | [E,G,]6 | %8
 [E,B,]4 [E,G,][E,G,] | [E,G,]2 [E,G,]2 [E,A,]2 | [E,B,]4 [E,B,][E,A,] | [E,G,]2 [E,G,]2 [E,A,]2 | %12
 [E,B,]4 [D,B,][E,B,] | [F,B,]2 [F,B,]2 [F,B,]2 | [F,C]2 [F,B,]3 [F,=A,] | [F,=A,]6 | %16
 [B,,B,]4 [B,,F,][B,,F,] | [B,,B,]2 [A,B,]3 [G,B,] | %18
 [F,B,]4 [B,,A,][B,,A,] [E,G,]2 [G,B,]3 [F,B,] | [E,B,]4 [D,B,][E,B,] | [F,B,]2 [F,B,]2 [F,B,]2 | %21
 [F,C]2 [F,B,]3 [F,=A,] | [F,=A,]6 | [B,,B,]4 B,B, | [E,B,]2 [E,B,]2 [E,E]2 | [E,E]4 [E,B,][E,B,] | %26
 [E,B,]2 [F,B,]2 [G,B,]2 | [A,E]4 [=A,E][A,E] | [B,E]2 !fermata!B,2 [C,=A,]2 | %29
 [B,,B,]3 [B,,B,] [B,,G,]2 | [B,,A,]6 | [E,G,]6 | x6 |] %33
V:4
 x2 | x6 | x6 | x6 | x6 | x6 | x6 | x6 | x6 | x6 | x6 | x6 | x6 | x6 | x6 | x6 | x6 | x6 | x12 | %19
 x6 | x6 | x6 | x6 | x4 B,B, | x6 | x6 | x6 | x6 | x2 B,2 x2 | x6 | x6 | x6 | x6 |] %33

